X:107
T:Galopede, The
R:polka 32=8*2+8+8 rant
O:England
Z:PJH
M:2/4
L:1/16
Q:1/4=120
K:G
|:dc|B2Bc A2AB|G2G2 G2AB|cBcd edcB|AGFE D2dc|
B2Bc A2AB|G2G2 G2AB|cBAG FDEF|G2G2 G2:|
Bc|d2gf e2e2|dcBc A2Bc|d2gf edcB|A2D2 D2Bc|
d2gf e2e2|dcBc A2Bc|dcBc AcBA|G2G2 G2Bc|
d2d2 d2g2|d2d2 d2g2|d2Bd edcB|A2D2 D2Bc|
d2d2 d2g2|d2d2 d2Bc|dcBc AcBA|G2G2 G2|]

